icons/Cypress-Dark.svg

<svg width="256" height="256" viewBox="0 0 256 256" fill="none" xmlns="http://www.w3.org/2000/svg">
<g clip-path="url(#clip0_36_1190)">
<path d="M196 0H60C26.8629 0 0 26.8629 0 60V196C0 229.137 26.8629 256 60 256H196C229.137 256 256 229.137 256 196V60C256 26.8629 229.137 0 196 0Z" fill="#242938"/>
<path d="M101.859 109.68C108.837 109.68 114.507 113.411 117.414 119.891L117.632 120.401L129.335 116.415L129.099 115.814C124.574 104.747 114.125 97.8843 101.859 97.8843C93.2268 97.8843 86.2123 100.651 80.4153 106.348C74.6547 112.01 71.7471 119.127 71.7471 127.5C71.7471 135.819 74.6728 142.899 80.4153 148.542C86.2123 154.24 93.2268 157.006 101.859 157.006C114.125 157.006 124.556 150.126 129.099 139.077L129.335 138.476L117.614 134.49L117.414 135.018C114.797 141.407 108.982 145.211 101.859 145.211C97.0067 145.211 92.8997 143.518 89.665 140.169C86.3758 136.783 84.7222 132.506 84.7222 127.5C84.7222 122.458 86.3395 118.271 89.665 114.722C92.9179 111.372 97.0067 109.68 101.859 109.68Z" fill="#1B1E2E"/>
<path d="M152.669 210.085L149.18 198.563C180.654 188.988 201.807 160.428 201.807 127.5C201.807 118.417 200.19 109.534 196.991 101.124L208.222 96.8467C211.947 106.64 213.837 116.942 213.837 127.518C213.819 165.762 189.25 198.945 152.669 210.085Z" fill="url(#paint0_linear_36_1190)"/>
<path d="M198.554 105.73C188.941 74.312 160.392 53.2152 127.5 53.2152C123.029 53.2152 118.559 53.6156 114.198 54.3983L112.072 42.5484C117.123 41.6383 122.321 41.165 127.5 41.165C165.698 41.165 198.863 65.684 210.039 102.18L198.554 105.73Z" fill="#69D3A7"/>
<path d="M46.7056 157.935C43.0347 148.215 41.1812 137.967 41.1812 127.5C41.1812 82.9038 74.6002 45.9707 118.923 41.6021L120.104 53.5794C81.96 57.3473 53.1931 89.1291 53.1931 127.5C53.1931 136.511 54.7923 145.339 57.9361 153.694L46.7056 157.935Z" fill="url(#paint1_linear_36_1190)"/>
<path d="M175.148 98.9766L158.484 141.279L141.693 98.9766H127.954L151.506 156.715L134.351 198.399L146.363 200.802L188.123 98.9766H175.148Z" fill="#1B1E2E"/>
<path d="M136.513 193.157L133.987 199.291C133.406 200.693 132.079 201.657 130.589 201.712C129.553 201.748 128.536 201.785 127.482 201.785C94.4988 201.785 65.1322 179.669 56.0642 147.996L44.5066 151.309C55.0466 188.096 89.1561 213.799 127.464 213.817H127.482C128.681 213.817 129.88 213.799 131.08 213.744C137.24 213.489 142.746 209.612 145.109 203.878L148.525 195.56L136.513 193.157Z" fill="url(#paint2_linear_36_1190)"/>
</g>
<defs>
<linearGradient id="paint0_linear_36_1190" x1="220.45" y1="128.046" x2="143.302" y2="177.914" gradientUnits="userSpaceOnUse">
<stop offset="0.0814251" stop-color="#69D3A7"/>
<stop offset="1" stop-color="#69D3A7" stop-opacity="0"/>
</linearGradient>
<linearGradient id="paint1_linear_36_1190" x1="98.7665" y1="42.2567" x2="50.2146" y2="145.059" gradientUnits="userSpaceOnUse">
<stop stop-color="#69D3A7"/>
<stop offset="0.8232" stop-color="#2AB586"/>
<stop offset="1" stop-color="#1CAE7F"/>
</linearGradient>
<linearGradient id="paint2_linear_36_1190" x1="41.059" y1="167.026" x2="168.061" y2="206.818" gradientUnits="userSpaceOnUse">
<stop offset="0.0773521" stop-color="#1CAE7F"/>
<stop offset="0.1638" stop-color="#1CA379"/>
<stop offset="0.3161" stop-color="#1C8568"/>
<stop offset="0.5165" stop-color="#1B554D"/>
<stop offset="0.7187" stop-color="#1B1E2E"/>
</linearGradient>
<clipPath id="clip0_36_1190">
<rect width="256" height="256" fill="white"/>
</clipPath>
</defs>
</svg>

<svg xmlns="http://www.w3.org/2000/svg" width="256" height="256" fill="none" viewBox="0 0 256 256"><g clip-path="url(#a)"><path fill="#242938" d="M196 0H60A60 60 0 0 0 0 60v136a60 60 0 0 0 60 60h136a60 60 0 0 0 60-60V60a60 60 0 0 0-60-60"/><path fill="#1B1E2E" d="M101.86 109.68c6.98 0 12.65 3.73 15.55 10.21l.22.51 11.7-3.98-.23-.6c-4.53-11.07-14.97-17.94-27.24-17.94-8.63 0-15.65 2.77-21.44 8.47-5.77 5.66-8.67 12.78-8.67 21.15 0 8.32 2.92 15.4 8.67 21.04 5.8 5.7 12.8 8.47 21.44 8.47 12.27 0 22.7-6.88 27.24-17.93l.24-.6-11.73-3.99-.2.53c-2.61 6.39-8.43 10.2-15.55 10.2-4.85 0-8.96-1.7-12.2-5.05-3.28-3.39-4.94-7.66-4.94-12.67 0-5.04 1.62-9.23 4.95-12.78a16.4 16.4 0 0 1 12.19-5.04"/><path fill="url(#b)" d="m152.67 210.09-3.49-11.53a73.9 73.9 0 0 0 52.63-71.06c0-9.08-1.62-17.97-4.82-26.38l11.23-4.27a86 86 0 0 1 5.62 30.67 85.9 85.9 0 0 1-61.17 82.57"/><path fill="#69D3A7" d="M198.55 105.73a73.9 73.9 0 0 0-71.05-52.51c-4.47 0-8.94.4-13.3 1.18l-2.13-11.85a87 87 0 0 1 15.43-1.38 85.85 85.85 0 0 1 82.54 61.01z"/><path fill="url(#c)" d="M46.7 157.94a86 86 0 0 1-5.52-30.44 85.97 85.97 0 0 1 77.74-85.9l1.18 11.98a74 74 0 0 0-66.9 73.92c0 9.01 1.6 17.84 4.74 26.2z"/><path fill="#1B1E2E" d="m175.15 98.98-16.67 42.3-16.79-42.3h-13.74l23.56 57.74-17.16 41.68 12.01 2.4 41.76-101.82z"/><path fill="url(#d)" d="m136.51 193.16-2.52 6.13a3.9 3.9 0 0 1-3.4 2.42q-1.54.06-3.1.07c-33 0-62.36-22.11-71.43-53.78l-11.55 3.3c10.54 36.8 44.65 62.5 82.95 62.52h.02q1.8 0 3.6-.08a16 16 0 0 0 14.03-9.86l3.41-8.32z"/></g><defs><linearGradient id="b" x1="220.45" x2="143.3" y1="128.05" y2="177.91" gradientUnits="userSpaceOnUse"><stop offset=".08" stop-color="#69D3A7"/><stop offset="1" stop-color="#69D3A7" stop-opacity="0"/></linearGradient><linearGradient id="c" x1="98.77" x2="50.21" y1="42.26" y2="145.06" gradientUnits="userSpaceOnUse"><stop stop-color="#69D3A7"/><stop offset=".82" stop-color="#2AB586"/><stop offset="1" stop-color="#1CAE7F"/></linearGradient><linearGradient id="d" x1="41.06" x2="168.06" y1="167.03" y2="206.82" gradientUnits="userSpaceOnUse"><stop offset=".08" stop-color="#1CAE7F"/><stop offset=".16" stop-color="#1CA379"/><stop offset=".32" stop-color="#1C8568"/><stop offset=".52" stop-color="#1B554D"/><stop offset=".72" stop-color="#1B1E2E"/></linearGradient><clipPath id="a"><path fill="#fff" d="M0 0h256v256H0z"/></clipPath></defs></svg>
